X: 321
T: When Sick, Is It Tea You Want?
M: 6/8
L: 1/8
R: jig
K: D
"D"Add dcB|ABA AFA|Add d2e|fdB ~B3|
Add dcB|ABA AFA|d3 "A"e/2f/2ge|"D"fdd d3:|
|:"D"afd dcd|"G"BGG G2 g|bge ede|"A"cAA A2A|
"D"Add dcB|ABA AFA|dfd "A"e/2f/2ge|fdd ~d3:|

%%newpage

